material/.icons/material/coffee-off.svg

<svg xmlns="http://www.w3.org/2000/svg" viewBox="0 0 24 24"><path d="M3.27 2L22 20.72 20.72 22l-.99-1H2v-2h15.73l-2.29-2.29c-.44.18-.94.29-1.44.29H8c-2.21 0-4-1.79-4-4V5.27l-2-2L3.27 2M22 5v3c0 1.1-.9 2-2 2h-2v3c0 .36-.06.7-.15 1.04L6.81 3H20a2 2 0 012 2m-2 0h-2v3h2V5z"/></svg>

<?xml version="1.0" encoding="UTF-8"?><!DOCTYPE svg PUBLIC "-//W3C//DTD SVG 1.1//EN" "http://www.w3.org/Graphics/SVG/1.1/DTD/svg11.dtd"><svg xmlns="http://www.w3.org/2000/svg" xmlns:xlink="http://www.w3.org/1999/xlink" version="1.1" id="mdi-coffee-off" width="24" height="24" viewBox="0 0 24 24"><path d="M3.27 2L22 20.72L20.72 22L19.73 21H2V19H17.73L15.44 16.71C15 16.89 14.5 17 14 17H8C5.79 17 4 15.21 4 13V5.27L2 3.27L3.27 2M22 5V8C22 9.1 21.1 10 20 10H18V13C18 13.36 17.94 13.7 17.85 14.04L6.81 3H20C21.1 3 22 3.89 22 5M20 5H18V8H20V5Z" /></svg>
